!!!COM: Stravinsky, Igor (Fyodorovich)
!!!OTL: Abraham and Isaac, Sacred Ballad for Baritone and Chamber Orchestra
!!!OMV:
!!!example: 400
!!!work: Str-61
**kern	**dynam	**kern	**dynam	**kern	**kern	**dynam	**kern	**kern	**dynam	**kern	**dynam	**kern	**kern	**dynam	**kern	**kern	**kern	**dynam	**kern
*part13	*part13	*part12	*part12	*part11	*part10	*part10	*part9	*part8	*part8	*part7	*part7	*part6	*part5	*part5	*part4	*part3	*part2	*part2	*part1
*staff13	*	*staff12	*	*staff11	*staff10	*	*staff9	*staff8	*	*staff7	*	*staff6	*staff5	*	*staff4	*staff3	*staff2	*	*staff1
*I"Viola	*	*I"Violin II	*	*I"Violin I	*I"Tuba	*	*I"Bass Trombone	*I"Bassoon	*	*I"Cor Anglais	*	*I"Bass Clarinet in Bb	*I"Clarinet in Bb	*	*I"Oboe	*I"Flute II.	*I"Flute I.	*	*I"Baritone
*I'Vla.	*	*I'Vln. II	*	*I'Vln. I	*I'Tba.	*	*I'B. Tbn.	*I'Bsn.	*	*I'C. A.	*	*I'B. Cl.	*I'Cl.	*	*I'Ob.	*I'Fl.	*I'Fl.	*	*I'Bar.
*clefC3	*	*clefG2	*	*clefG2	*clefF4	*	*clefF4	*clefF4	*	*clefG2	*	*clefF4	*clefG2	*	*clefG2	*clefG2	*clefG2	*	*clefF4
*	*	*	*	*	*	*	*	*	*	*ITrd4c7	*	*ITrd1c2	*ITrd1c2	*	*	*	*	*	*
*k[]	*	*k[]	*	*k[]	*k[]	*	*k[]	*k[]	*	*k[]	*	*k[]	*k[]	*	*k[]	*k[]	*k[]	*	*k[]
*C:	*	*C:	*	*C:	*C:	*	*C:	*C:	*	*C:	*	*C:	*C:	*	*C:	*C:	*C:	*	*C:
*M2/8	*	*M2/8	*	*M2/8	*M2/8	*	*M2/8	*M2/8	*	*M2/8	*	*M2/8	*M2/8	*	*M2/8	*M2/8	*M2/8	*	*M2/8
*MM121	*	*MM121	*	*MM121	*MM121	*	*MM121	*MM121	*	*MM121	*	*MM121	*MM121	*	*MM121	*MM121	*MM121	*	*MM121
=47	=47	=47	=47	=47	=47	=47	=47	=47	=47	=47	=47	=47	=47	=47	=47	=47	=47	=47	=47
8r	.	4gg	mf	4eee	4r	.	4r	20BBB#XLL	mf	4r	.	4r	4r	.	16dd#XLL	4r	4r	.	4r
.	.	.	.	.	.	.	.	20E	.	.	.	.	.	.	.	.	.	.	.
.	.	.	.	.	.	.	.	.	.	.	.	.	.	.	(16c#XJJ	.	.	.	.
.	.	.	.	.	.	.	.	20f#X	.	.	.	.	.	.	.	.	.	.	.
(8c#X	mf	.	.	.	.	.	.	.	.	.	.	.	.	.	16dd#LL)	.	.	.	.
.	.	.	.	.	.	.	.	20E#X	.	.	.	.	.	.	.	.	.	.	.
.	.	.	.	.	.	.	.	.	.	.	.	.	.	.	(16c#JJ	.	.	.	.
.	.	.	.	.	.	.	.	20d#XJJ	.	.	.	.	.	.	.	.	.	.	.
*	*	*	*	*	*	*	*	*clefG2	*	*	*	*	*	*	*	*	*	*	*
=48	=48	=48	=48	=48	=48	=48	=48	=48	=48	=48	=48	=48	=48	=48	=48	=48	=48	=48	=48
*M3/8	*	*M3/8	*	*M3/8	*M3/8	*	*M3/8	*M3/8	*	*M3/8	*	*M3/8	*M3/8	*	*M3/8	*M3/8	*M3/8	*	*M3/8
.	.	.	.	.	.	.	.	.	.	.	.	(8qff/	.	.	.	.	.	.	.
4.e#X)	.	8r	.	(8fn	8%3r	.	8%3r	16cc#X	.	8%3r	.	40%3bLL)	56%3r	.	(16dd#XLL)	8%3r	8%3r	.	8%3r
.	.	.	.	.	.	.	.	.	.	.	.	.	(56%3ALL	.	.	.	.	.	.
.	.	.	.	.	.	.	.	16r	.	.	.	.	.	.	16ddn	.	.	.	.
.	.	.	.	.	.	.	.	.	.	.	.	40%3A#X	.	.	.	.	.	.	.
.	.	.	.	.	.	.	.	.	.	.	.	.	56%3b)	.	.	.	.	.	.
.	.	8r	.	4ff#X)	.	.	.	8r	.	.	.	.	.	.	16b#X	.	.	.	.
.	.	.	.	.	.	.	.	.	.	.	.	40%3b#X	.	.	.	.	.	.	.
.	.	.	.	.	.	.	.	.	.	.	.	.	(56%3c#X	.	.	.	.	.	.
.	.	.	.	.	.	.	.	.	.	.	.	.	.	.	16a#X	.	.	.	.
.	.	.	.	.	.	.	.	.	.	.	.	.	56%3ddJJ)	.	.	.	.	.	.
.	.	.	.	.	.	.	.	.	.	.	.	40%3dd	.	.	.	.	.	.	.
.	.	8dd	.	.	.	.	.	8r	.	.	.	.	.	.	16an	.	.	.	.
.	.	.	.	.	.	.	.	.	.	.	.	.	56%3r	.	.	.	.	.	.
.	.	.	.	.	.	.	.	.	.	.	.	40%3c#XJJ	.	.	.	.	.	.	.
.	.	.	.	.	.	.	.	.	.	.	.	.	.	.	16ccc#XJJ)	.	.	.	.
.	.	.	.	.	.	.	.	.	.	.	.	.	(8qa#X/	.	.	.	.	.	.
.	.	.	.	.	.	.	.	.	.	.	.	.	56%3gg#X)	.	.	.	.	.	.
=49	=49	=49	=49	=49	=49	=49	=49	=49	=49	=49	=49	=49	=49	=49	=49	=49	=49	=49	=49
*M2/8	*	*M2/8	*	*M2/8	*M2/8	*	*M2/8	*M2/8	*	*M2/8	*	*M2/8	*M2/8	*	*M2/8	*M2/8	*M2/8	*	*M2/8
4r	.	4r	.	4r	4r	.	4r	4r	.	4r	.	4r	4r	.	4r	4r	4r	.	4r
=50	=50	=50	=50	=50	=50	=50	=50	=50	=50	=50	=50	=50	=50	=50	=50	=50	=50	=50	=50
!	!	!	!	!	!	!	!	!	!	!	!	!	!	!	!	!	!LO:TX:b:i:t={	!	!
4r	.	4r	.	4r	4r	.	4r	4r	.	4cc~	p	4r	4aa#X~	p	4r	4gg#X~	4aaan~	p	4r
=51	=51	=51	=51	=51	=51	=51	=51	=51	=51	=51	=51	=51	=51	=51	=51	=51	=51	=51	=51
*	*	*	*	*	*	*	*	*clefF4	*	*	*	*	*	*	*	*	*	*	*
!	!	!	!	!	!	!	!LO:TX:b:i:t=sempre stacc.marc.	!LO:TX:b:i:t=poco	!	!	!	!	!	!	!	!	!	!	!
.	.	.	.	.	.	.	.	.	.	.	.	.	.	.	.	.	.	.	8qqB^/
4r	.	4r	.	4r	4r	.	16D#X	16D#X'KL	sf	4r	.	4r	4r	.	4r	4r	4r	.	16D#X
.	.	.	.	.	.	.	16r	8c	.	.	.	.	.	.	.	.	.	.	16Fn
.	.	.	.	.	.	.	16r	.	.	.	.	.	.	.	.	.	.	.	(16G^LL
.	.	.	.	.	.	.	16Dn	[16DnJk	.	.	.	.	.	.	.	.	.	.	16F#XJJ)
=52	=52	=52	=52	=52	=52	=52	=52	=52	=52	=52	=52	=52	=52	=52	=52	=52	=52	=52	=52
*M3/8	*	*M3/8	*	*M3/8	*M3/8	*	*M3/8	*M3/8	*	*M3/8	*	*M3/8	*M3/8	*	*M3/8	*M3/8	*M3/8	*	*M3/8
8%3r	.	8%3r	.	8%3r	8%3r	.	16r	16DKL]	.	8%3r	.	8%3r	8%3r	.	8%3r	8%3r	8%3r	.	24E
.	.	.	.	.	.	.	.	.	.	.	.	.	.	.	.	.	.	.	24Dn
.	.	.	.	.	.	.	8CC'	8CC	.	.	.	.	.	.	.	.	.	.	.
.	.	.	.	.	.	.	.	.	.	.	.	.	.	.	.	.	.	.	24c#X
.	.	.	.	.	.	.	.	.	.	.	.	.	.	.	.	.	.	.	16r
.	.	.	.	.	.	.	16ryy	8c#XJ	.	.	.	.	.	.	.	.	.	.	16c#
.	.	.	.	.	.	.	8r	.	.	.	.	.	.	.	.	.	.	.	24D
.	.	.	.	.	.	.	.	.	.	.	.	.	.	.	.	.	.	.	24E
.	.	.	.	.	.	.	.	16r	.	.	.	.	.	.	.	.	.	.	.
.	.	.	.	.	.	.	.	.	.	.	.	.	.	.	.	.	.	.	24r
=53	=53	=53	=53	=53	=53	=53	=53	=53	=53	=53	=53	=53	=53	=53	=53	=53	=53	=53	=53
*M2/8	*	*M2/8	*	*M2/8	*M2/8	*	*M2/8	*M2/8	*	*M2/8	*	*M2/8	*M2/8	*	*M2/8	*M2/8	*M2/8	*	*M2/8
!	!	!	!	!	!LO:TX:b:i:t=poco	!	!	!	!	!	!	!	!	!	!	!	!	!	!
4r	.	4r	.	4r	16CC'	sf	4r	16CCn'LL	.	4r	.	4r	4r	.	4r	4r	4r	.	24D
.	.	.	.	.	.	.	.	.	.	.	.	.	.	.	.	.	.	.	24E
.	.	.	.	.	16r	.	.	16c#XJJ	.	.	.	.	.	.	.	.	.	.	.
.	.	.	.	.	.	.	.	.	.	.	.	.	.	.	.	.	.	.	24D
.	.	.	.	.	16r	.	.	16r	.	.	.	.	.	.	.	.	.	.	(24ELL
.	.	.	.	.	.	.	.	.	.	.	.	.	.	.	.	.	.	.	24DJJ)
.	.	.	.	.	16GG'	.	.	16GG'LL	.	.	.	.	.	.	.	.	.	.	.
.	.	.	.	.	.	.	.	.	.	.	.	.	.	.	.	.	.	.	24D
=54	=54	=54	=54	=54	=54	=54	=54	=54	=54	=54	=54	=54	=54	=54	=54	=54	=54	=54	=54
*M3/8	*	*M3/8	*	*M3/8	*M3/8	*	*M3/8	*M3/8	*	*M3/8	*	*M3/8	*M3/8	*	*M3/8	*M3/8	*M3/8	*	*M3/8
8%3r	.	8%3r	.	8%3r	16r	.	8%3r	16c#X'	.	8%3r	.	8%3r	8%3r	.	8%3r	8%3r	8%3r	.	(24ELL
.	.	.	.	.	.	.	.	.	.	.	.	.	.	.	.	.	.	.	24DJJ)
.	.	.	.	.	16GG'	.	.	16GG'JJ	.	.	.	.	.	.	.	.	.	.	.
.	.	.	.	.	.	.	.	.	.	.	.	.	.	.	.	.	.	.	(24D
.	.	.	.	.	24r	.	.	24c#'LL	.	.	.	.	.	.	.	.	.	.	16ELL
.	.	.	.	.	24GG'	.	.	24GG'JJ	.	.	.	.	.	.	.	.	.	.	.
.	.	.	.	.	.	.	.	.	.	.	.	.	.	.	.	.	.	.	16F#XJJ)
.	.	.	.	.	24r	.	.	24r	.	.	.	.	.	.	.	.	.	.	.
.	.	.	.	.	8r	.	.	8r	.	.	.	.	.	.	.	.	.	.	(32G^LLL
.	.	.	.	.	.	.	.	.	.	.	.	.	.	.	.	.	.	.	32FnJJJ)
.	.	.	.	.	.	.	.	.	.	.	.	.	.	.	.	.	.	.	16r
=	=	=	=	=	=	=	=	=	=	=	=	=	=	=	=	=	=	=	=
*-	*-	*-	*-	*-	*-	*-	*-	*-	*-	*-	*-	*-	*-	*-	*-	*-	*-	*-	*-
!!!system-decoration: s1[(s2,s3,s4,s5,s6,s7,s8)][(s9,s10)][(s11,s12,s13)]
!!!CDT: 1882/06/17-1971/04/06
!!!CBL: Lomonosov (Oranienbaum), Russia
!!!CDL: New York, United States
!!!CNT: Russian, French, American
!!!AGN: Vocal; Solo
!!!MCN: Craft, Robert
!!!MDT: 1964/08/23
!!!MGN: Israel Festival Orchestra
!!!MLC: Jerusalem, Israel
!!!MPD: 1963
!!!MPN: Biran, Ephraim
!!!ODT: 1963
!!!PDT: 1965
!!!excerpt-start-measure: 47
!!!excerpt-end-measure: 54
!!!excerpt-start-time: 1:46
!!!excerpt-end-time: 2:04
!!!EEV: 2020/01/27
!!!ONB: Converted from MusicXML on 2020/01/27
